icons/logentries.svg

<?xml version="1.0" encoding="UTF-8" standalone="no"?>
<svg width="256px" height="256px" viewBox="0 0 256 256" version="1.1" xmlns="http://www.w3.org/2000/svg" xmlns:xlink="http://www.w3.org/1999/xlink" preserveAspectRatio="xMidYMid">
	<g>
		<path d="M201.73137,255.654114 L53.5857267,255.654114 C24.0701195,255.654114 0.230590681,231.814585 0.230590681,202.298978 L0.230590681,53.5857267 C0.230590681,24.0701195 24.0701195,0.230590681 53.5857267,0.230590681 L201.73137,0.230590681 C231.246977,0.230590681 255.086506,24.0701195 255.086506,53.5857267 L255.086506,202.298978 C255.086506,231.814585 231.246977,255.654114 201.73137,255.654114 Z" fill="#F47721"></path>
		<path d="M202.298978,71.7491772 C204.569409,70.0463537 207.407448,68.3435302 209.67788,66.6407067 C208.542664,62.6674519 206.272233,59.261805 204.001801,55.856158 C201.163762,56.9913736 198.893331,58.6941971 196.055292,59.8294128 C194.352468,58.6941971 192.649645,56.9913736 190.379214,55.856158 C190.946821,53.0181188 191.514429,49.6124719 192.082037,46.7744327 C188.108782,45.639217 184.135527,43.9363936 180.162273,43.3687857 C179.027057,46.2068249 178.459449,49.044864 177.324234,51.8829032 C175.053802,51.8829032 172.783371,52.450511 171.080547,53.0181188 C169.377724,50.7476875 167.6749,47.9096484 165.972077,45.639217 C161.998822,46.7744327 158.593175,49.044864 155.187528,51.8829032 C156.322744,54.7209423 157.457959,57.5589815 159.160783,60.3970206 C157.457959,62.0998441 156.322744,63.8026676 155.187528,65.5054911 C152.349489,64.9378832 148.943842,64.3702754 146.105803,63.8026676 C144.970587,67.7759224 143.835372,71.7491772 142.700156,75.722432 C145.538195,76.8576477 148.376234,77.9928633 151.214273,78.5604712 C151.214273,80.8309025 151.781881,83.1013338 151.781881,85.3717651 C149.51145,87.0745886 146.673411,88.7774121 144.402979,90.4802356 C145.538195,94.4534904 147.808626,97.8591374 150.646666,101.264784 C153.484705,100.129569 156.322744,98.4267452 159.160783,97.2915295 C160.863606,98.994353 162.56643,100.129569 164.269253,101.264784 C163.701646,104.102823 163.134038,107.50847 162.56643,110.34651 C166.539685,112.049333 170.51294,112.616941 174.486194,113.184549 C175.053802,110.34651 176.189018,107.50847 177.324234,104.670431 C179.594665,104.670431 181.865096,104.102823 184.135527,104.102823 C185.838351,106.373255 187.541174,109.211294 189.243998,111.481725 C193.217253,109.778902 196.6229,108.076078 199.460939,105.238039 C198.325723,102.4 196.6229,99.5619609 195.487684,96.7239217 C196.6229,95.0210982 198.325723,93.3182747 199.460939,91.6154512 C202.298978,92.1830591 205.704625,92.7506669 208.542664,93.3182747 C209.67788,89.3450199 211.380703,85.3717651 211.948311,81.3985103 C209.110272,80.8309025 206.272233,79.6956868 203.434194,78.5604712 C203.434194,76.2900398 202.866586,74.0196085 202.298978,71.7491772 L202.298978,71.7491772 Z M189.811606,79.6956868 C189.811606,87.0745886 181.865096,92.1830591 175.053802,89.9126277 C168.810116,88.2098043 164.836861,80.8309025 167.107293,74.5872164 C168.242508,70.6139615 171.648155,68.3435302 175.053802,67.2083146 C182.432704,64.9378832 190.379214,71.7491772 189.811606,79.6956868 L189.811606,79.6956868 Z" fill="#FFFFFF"></path>
		<circle fill="#F36D21" cx="177.324234" cy="78.5604712" r="17.0282349"></circle>
		<path d="M127.374745,193.217253 C140.997332,192.649645 150.079058,202.298978 160.863606,207.975056 C176.756626,216.489174 192.082037,214.78635 204.001801,200.596155 C209.67788,193.784861 212.515919,186.973567 212.515919,179.594665 L212.515919,179.594665 C212.515919,172.783371 209.67788,165.404469 204.569409,159.160783 C192.649645,144.402979 177.324234,144.402979 161.431214,152.349489 C155.755136,155.187528 150.646666,159.728391 144.402979,162.56643 C129.645176,169.377724 115.45498,168.810116 102.4,156.890352 C89.3450199,144.402979 84.8041573,130.212784 92.7506669,113.752157 C95.588706,108.076078 99.5619609,102.4 102.4,96.7239217 C111.481725,80.2632946 113.184549,63.8026676 97.8591374,50.7476875 C91.6154512,45.0716092 84.2365495,42.8011779 77.4252555,42.8011779 L77.4252555,42.8011779 C70.6139615,42.8011779 63.2350598,45.639217 56.4237658,50.7476875 C40.5307466,63.2350598 38.8279231,80.8309025 49.6124719,96.1563139 C65.5054911,118.293019 67.2083146,138.159293 50.1800797,160.295999 C39.3955309,174.486194 39.3955309,190.946821 53.0181188,204.001801 C59.8294128,210.813095 67.2083146,213.651135 74.5872164,213.651135 L74.5872164,213.651135 C81.9661181,213.651135 89.9126277,210.813095 97.2915295,206.272233 C106.940863,200.028547 115.45498,192.082037 127.374745,193.217253 L127.374745,193.217253 Z" fill="#FFFFFF"></path>
	</g>
</svg>

<svg xmlns="http://www.w3.org/2000/svg" viewBox="0 0 254.856 255.424">
  <g transform="translate(-.23 -.23)">
    <path fill="#f47721" d="M201.731 255.654H53.586C24.07 255.654.23 231.814.23 202.3V53.586C.23 24.07 24.07.23 53.586.23H201.73c29.516 0 53.356 23.84 53.356 53.355v148.713c0 29.516-23.84 53.355-53.356 53.355z"/>
    <path fill="#fff" d="M202.299 71.75c2.27-1.704 5.108-3.406 7.379-5.11-1.135-3.973-3.406-7.378-5.676-10.784-2.838 1.135-5.109 2.838-7.947 3.973-1.703-1.135-3.405-2.838-5.676-3.973.568-2.838 1.135-6.244 1.703-9.082-3.973-1.135-7.946-2.838-11.92-3.405-1.135 2.838-1.703 5.676-2.838 8.514-2.27 0-4.54.568-6.243 1.135-1.703-2.27-3.406-5.108-5.109-7.379-3.973 1.135-7.379 3.406-10.784 6.244 1.135 2.838 2.27 5.676 3.973 8.514-1.703 1.703-2.838 3.406-3.973 5.108-2.839-.567-6.244-1.135-9.082-1.702l-3.406 11.92c2.838 1.135 5.676 2.27 8.514 2.837 0 2.27.568 4.541.568 6.812-2.27 1.703-5.109 3.405-7.379 5.108 1.135 3.973 3.406 7.38 6.244 10.785 2.838-1.135 5.676-2.838 8.514-3.973 1.703 1.702 3.405 2.838 5.108 3.973-.567 2.838-1.135 6.243-1.703 9.082 3.974 1.702 7.947 2.27 11.92 2.838.568-2.838 1.703-5.677 2.838-8.515 2.27 0 4.541-.567 6.812-.567 1.702 2.27 3.405 5.108 5.108 7.379 3.973-1.703 7.379-3.406 10.217-6.244-1.135-2.838-2.838-5.676-3.973-8.514 1.135-1.703 2.838-3.406 3.973-5.109 2.838.568 6.244 1.136 9.082 1.703 1.135-3.973 2.838-7.946 3.405-11.92-2.838-.567-5.676-1.702-8.514-2.838 0-2.27-.567-4.54-1.135-6.81zm-12.487 7.946c0 7.379-7.947 12.487-14.758 10.217-6.244-1.703-10.217-9.082-7.947-15.326 1.136-3.973 4.541-6.243 7.947-7.379 7.379-2.27 15.325 4.541 14.758 12.488z"/>
    <circle cx="177.324" cy="78.56" r="17.028" fill="#f36d21"/>
    <path fill="#fff" d="M127.375 193.217c13.622-.567 22.704 9.082 33.489 14.758 15.893 8.514 31.218 6.811 43.138-7.379 5.676-6.811 8.514-13.622 8.514-21.001 0-6.812-2.838-14.19-7.947-20.434-11.92-14.758-27.245-14.758-43.138-6.812-5.676 2.839-10.784 7.38-17.028 10.217-14.758 6.812-28.948 6.244-42.003-5.676-13.055-12.487-17.596-26.677-9.65-43.138 2.839-5.676 6.812-11.352 9.65-17.028 9.082-16.46 10.785-32.921-4.54-45.976-6.245-5.676-13.623-7.947-20.435-7.947-6.811 0-14.19 2.838-21.001 7.947C40.53 63.235 38.828 80.83 49.612 96.156c15.893 22.137 17.596 42.003.568 64.14-10.784 14.19-10.784 30.65 2.838 43.706 6.811 6.811 14.19 9.65 21.57 9.65 7.378 0 15.325-2.839 22.704-7.38 9.649-6.243 18.163-14.19 30.083-13.055z"/>
  </g>
</svg>
